img/pong.svg

<svg xmlns="http://www.w3.org/2000/svg" viewBox="0 0 512 512"><g fill="none" stroke-width="2"><path stroke="#4b1b14" d="M100.08 51.61Q67.33 73.06 47.5 106.53C5.99 176.6 20.78 265.35 82.01 318.73q40.38 35.2 96.97 40.62 2.58.25 5.2.12.51-.02.6-.52 3.33-19.38 18.56-33.21" vector-effect="non-scaling-stroke"/><path stroke="#63231b" d="M203.34 325.74q13.71-11.83 32.63-13.49.52-.05.89-.42l122.37-122.31q.58-.57.56-1.39-.87-34.59-15.11-65.84c-22.33-49-68.24-85.63-121.46-95.33q-54.34-9.91-104.23 13.74-9.59 4.55-18.91 10.91" vector-effect="non-scaling-stroke"/><path stroke="#ae3e2f" d="M203.34 325.74q-38.99-6.79-70.48-28.35c-47.06-32.22-75.61-84.73-76.77-141.98q-.81-39.91 19.27-73.06 9.72-16.05 24.72-30.74" vector-effect="non-scaling-stroke"/><path stroke="#5b5953" d="m267.27 304.08-10.15 10.16q-.24.24.07.36 31.58 11.59 38.16 44.81.14.65.8.67c20.74.54 39.61 7.19 55.26 20.3q.48.4.93-.04l28.02-28.01q.3-.31.02-.63-5.79-6.86-9.88-14.19" vector-effect="non-scaling-stroke"/><path stroke="#6d6b65" d="M370.5 337.51q-6.85-12.3-9.28-25.59-1.33-7.24-1.29-18.14.15-41.74.04-81.95a.19.19 0 0 0-.33-.13l-92.37 92.38" vector-effect="non-scaling-stroke"/><path stroke="#c8c3b8" d="M370.5 337.51q-8.33 9.85-10.95 12.09-14.44 12.33-32.6 6-13.34-4.65-22.08-15.61c-3.3-4.15-6.82-11.15-10.15-15.21q-10.94-13.34-27.45-20.7" vector-effect="non-scaling-stroke"/><path stroke="#806b2f" d="M279.96 367.99A39.96 39.96 0 0 0 240 328.03a39.96 39.96 0 0 0-39.96 39.96A39.96 39.96 0 0 0 240 407.95a39.96 39.96 0 0 0 39.96-39.96" vector-effect="non-scaling-stroke"/><path stroke="#1d1d1d" d="M434.25 470.8q4.27 4.74 8.18 8.31c13.18 12.07 31.69 11.92 41.89-3.92 8.01-12.44.84-26.05-8.59-34.77q-41.48-38.38-83.3-77a.34.34 0 0 0-.47.01l-28.6 28.61a.4.4 0 0 0-.01.55q35.66 39.12 70.9 78.21" vector-effect="non-scaling-stroke"/><path stroke="#63231b" d="M192.3 64.02c42.24.27 80.39 22 102.28 57.85q16.94 27.74 17.43 61.61a.54.53 89.4 0 0 .53.53h14.94a.5.5 0 0 0 .5-.51c-.81-75.06-60.22-134.6-135.44-135.5q-.54-.01-.54.53v15.18a.31.3-90 0 0 .3.31" vector-effect="non-scaling-stroke"/><path stroke="#ffeaae" d="M270.972 365.2a21.17 9.45 40.4 0 0-9.997-20.916 21.17 9.45 40.4 0 0-22.247-6.525 21.17 9.45 40.4 0 0 9.997 20.917 21.17 9.45 40.4 0 0 22.247 6.525" vector-effect="non-scaling-stroke"/></g><path d="M184.69 376.22q-.06-.42-.48-.44C72.48 370.51-10.01 268.09 11.32 157.32 31.8 50.97 139.69-14.98 243.72 15.46c78.03 22.84 131.95 94.63 132.23 176.23q.16 45.71-.03 101.36-.04 10.19 1.16 16.58c2.61 13.98 9.76 26.91 20.32 36.65q44.99 41.49 88.56 81.82c16.11 14.91 24.61 36.41 11.32 56.46-11.3 17.05-30.85 23.95-50.21 16.14-9.51-3.84-16.4-10-23.93-18.32q-38.36-42.44-76.75-84.63c-12.7-13.96-31.71-21.21-50.49-21.69q-.54-.01-.63.51-3.69 21.04-19.41 34.31c-20.78 17.53-51.54 17.39-72.06-.3q-15.84-13.66-19.11-34.36M100.08 51.61Q67.33 73.06 47.5 106.53C5.99 176.6 20.78 265.35 82.01 318.73q40.38 35.2 96.97 40.62 2.58.25 5.2.12.51-.02.6-.52 3.33-19.38 18.56-33.21 13.71-11.83 32.63-13.49.52-.05.89-.42l122.37-122.31q.58-.57.56-1.39-.87-34.59-15.11-65.84c-22.33-49-68.24-85.63-121.46-95.33q-54.34-9.91-104.23 13.74-9.59 4.55-18.91 10.91m167.19 252.47-10.15 10.16q-.24.24.07.36 31.58 11.59 38.16 44.81.14.65.8.67c20.74.54 39.61 7.19 55.26 20.3q.48.4.93-.04l28.02-28.01q.3-.31.02-.63-5.79-6.86-9.88-14.19-6.85-12.3-9.28-25.59-1.33-7.24-1.29-18.14.15-41.74.04-81.95a.19.19 0 0 0-.33-.13zm12.69 63.91A39.96 39.96 0 0 0 240 328.03a39.96 39.96 0 0 0-39.96 39.96A39.96 39.96 0 0 0 240 407.95a39.96 39.96 0 0 0 39.96-39.96M434.25 470.8q4.27 4.74 8.18 8.31c13.18 12.07 31.69 11.92 41.89-3.92 8.01-12.44.84-26.05-8.59-34.77q-41.48-38.38-83.3-77a.34.34 0 0 0-.47.01l-28.6 28.61a.4.4 0 0 0-.01.55q35.66 39.12 70.9 78.21"/><path fill="#c64635" d="M203.34 325.74q-38.99-6.79-70.48-28.35c-47.06-32.22-75.61-84.73-76.77-141.98q-.81-39.91 19.27-73.06 9.72-16.05 24.72-30.74 9.32-6.36 18.91-10.91 49.89-23.65 104.23-13.74c53.22 9.7 99.13 46.33 121.46 95.33q14.24 31.25 15.11 65.84.02.82-.56 1.39L236.86 311.83q-.37.37-.89.42-18.92 1.66-32.63 13.49M192.3 64.02c42.24.27 80.39 22 102.28 57.85q16.94 27.74 17.43 61.61a.54.53 89.4 0 0 .53.53h14.94a.5.5 0 0 0 .5-.51c-.81-75.06-60.22-134.6-135.44-135.5q-.54-.01-.54.53v15.18a.31.3-90 0 0 .3.31"/><path d="M294.58 121.87c-21.89-35.85-60.04-57.58-102.28-57.85a.31.3-90 0 1-.3-.31V48.53q0-.54.54-.53c75.22.9 134.63 60.44 135.44 135.5a.5.5 0 0 1-.5.51h-14.94a.54.53 89.4 0 1-.53-.53q-.49-33.87-17.43-61.61"/><path fill="#953528" d="M100.08 51.61q-15 14.69-24.72 30.74-20.08 33.15-19.27 73.06c1.16 57.25 29.71 109.76 76.77 141.98q31.49 21.56 70.48 28.35-15.23 13.83-18.56 33.21-.09.5-.6.52-2.62.13-5.2-.12-56.59-5.42-96.97-40.62C20.78 265.35 5.99 176.6 47.5 106.53q19.83-33.47 52.58-54.92"/><path fill="#d9d5ca" d="M370.5 337.51q-8.33 9.85-10.95 12.09-14.44 12.33-32.6 6-13.34-4.65-22.08-15.61c-3.3-4.15-6.82-11.15-10.15-15.21q-10.94-13.34-27.45-20.7l92.37-92.38a.19.19 0 0 1 .33.13q.11 40.21-.04 81.95-.04 10.9 1.29 18.14 2.43 13.29 9.28 25.59"/><path fill="#b6b1a5" d="M267.27 304.08q16.51 7.36 27.45 20.7c3.33 4.06 6.85 11.06 10.15 15.21q8.74 10.96 22.08 15.61 18.16 6.33 32.6-6 2.62-2.24 10.95-12.09 4.09 7.33 9.88 14.19.28.32-.02.63l-28.02 28.01q-.45.44-.93.04c-15.65-13.11-34.52-19.76-55.26-20.3q-.66-.02-.8-.67-6.58-33.22-38.16-44.81-.31-.12-.07-.36z"/><path fill="#ffd55d" d="M279.96 367.99A39.96 39.96 0 0 1 240 407.95a39.96 39.96 0 0 1-39.96-39.96A39.96 39.96 0 0 1 240 328.03a39.96 39.96 0 0 1 39.96 39.96m-8.988-2.79a21.17 9.45 40.4 0 0-9.997-20.916 21.17 9.45 40.4 0 0-22.247-6.525 21.17 9.45 40.4 0 0 9.997 20.917 21.17 9.45 40.4 0 0 22.247 6.525"/><ellipse fill="#fff" rx="21.17" ry="9.45" transform="rotate(40.4 -350.222 522.071)"/><path fill="#393a3a" d="M434.25 470.8q-35.24-39.09-70.9-78.21a.4.4 0 0 1 .01-.55l28.6-28.61a.34.34 0 0 1 .47-.01q41.82 38.62 83.3 77c9.43 8.72 16.6 22.33 8.59 34.77-10.2 15.84-28.71 15.99-41.89 3.92q-3.91-3.57-8.18-8.31"/></svg>

<?xml version="1.0" encoding="UTF-8" standalone="no"?>
<!DOCTYPE svg PUBLIC "-//W3C//DTD SVG 1.1//EN" "http://www.w3.org/Graphics/SVG/1.1/DTD/svg11.dtd">
<svg xmlns="http://www.w3.org/2000/svg" version="1.1" viewBox="0.00 0.00 512.00 512.00">
<g stroke-width="2.00" fill="none" stroke-linecap="butt">
<path stroke="#4b1b14" vector-effect="non-scaling-stroke" d="
  M 100.08 51.61
  Q 67.33 73.06 47.50 106.53
  C 5.99 176.60 20.78 265.35 82.01 318.73
  Q 122.39 353.93 178.98 359.35
  Q 181.56 359.60 184.18 359.47
  Q 184.69 359.45 184.78 358.95
  Q 188.11 339.57 203.34 325.74"
/>
<path stroke="#63231b" vector-effect="non-scaling-stroke" d="
  M 203.34 325.74
  Q 217.05 313.91 235.97 312.25
  Q 236.49 312.20 236.86 311.83
  L 359.23 189.52
  Q 359.81 188.95 359.79 188.13
  Q 358.92 153.54 344.68 122.29
  C 322.35 73.29 276.44 36.66 223.22 26.96
  Q 168.88 17.05 118.99 40.70
  Q 109.40 45.25 100.08 51.61"
/>
<path stroke="#ae3e2f" vector-effect="non-scaling-stroke" d="
  M 203.34 325.74
  Q 164.35 318.95 132.86 297.39
  C 85.80 265.17 57.25 212.66 56.09 155.41
  Q 55.28 115.50 75.36 82.35
  Q 85.08 66.30 100.08 51.61"
/>
<path stroke="#5b5953" vector-effect="non-scaling-stroke" d="
  M 267.27 304.08
  L 257.12 314.24
  Q 256.88 314.48 257.19 314.60
  Q 288.77 326.19 295.35 359.41
  Q 295.49 360.06 296.15 360.08
  C 316.89 360.62 335.76 367.27 351.41 380.38
  Q 351.89 380.78 352.34 380.34
  L 380.36 352.33
  Q 380.66 352.02 380.38 351.70
  Q 374.59 344.84 370.50 337.51"
/>
<path stroke="#6d6b65" vector-effect="non-scaling-stroke" d="
  M 370.50 337.51
  Q 363.65 325.21 361.22 311.92
  Q 359.89 304.68 359.93 293.78
  Q 360.08 252.04 359.97 211.83
  A 0.19 0.19 0.0 0 0 359.64 211.70
  L 267.27 304.08"
/>
<path stroke="#c8c3b8" vector-effect="non-scaling-stroke" d="
  M 370.50 337.51
  Q 362.17 347.36 359.55 349.60
  Q 345.11 361.93 326.95 355.60
  Q 313.61 350.95 304.87 339.99
  C 301.57 335.84 298.05 328.84 294.72 324.78
  Q 283.78 311.44 267.27 304.08"
/>
<path stroke="#806b2f" vector-effect="non-scaling-stroke" d="
  M 279.96 367.99
  A 39.96 39.96 0.0 0 0 240.00 328.03
  A 39.96 39.96 0.0 0 0 200.04 367.99
  A 39.96 39.96 0.0 0 0 240.00 407.95
  A 39.96 39.96 0.0 0 0 279.96 367.99"
/>
<path stroke="#1d1d1d" vector-effect="non-scaling-stroke" d="
  M 434.25 470.80
  Q 438.52 475.54 442.43 479.11
  C 455.61 491.18 474.12 491.03 484.32 475.19
  C 492.33 462.75 485.16 449.14 475.73 440.42
  Q 434.25 402.04 392.43 363.42
  A 0.34 0.34 0.0 0 0 391.96 363.43
  L 363.36 392.04
  A 0.40 0.40 0.0 0 0 363.35 392.59
  Q 399.01 431.71 434.25 470.80"
/>
<path stroke="#63231b" vector-effect="non-scaling-stroke" d="
  M 192.30 64.02
  C 234.54 64.29 272.69 86.02 294.58 121.87
  Q 311.52 149.61 312.01 183.48
  A 0.54 0.53 89.4 0 0 312.54 184.01
  L 327.48 184.01
  A 0.50 0.50 0.0 0 0 327.98 183.50
  C 327.17 108.44 267.76 48.90 192.54 48.00
  Q 192.00 47.99 192.00 48.53
  L 192.00 63.71
  A 0.31 0.30 -90.0 0 0 192.30 64.02"
/>
<path stroke="#ffeaae" vector-effect="non-scaling-stroke" d="
  M 270.9718 365.2007
  A 21.17 9.45 40.4 0 0 260.9747 344.2835
  A 21.17 9.45 40.4 0 0 238.7282 337.7593
  A 21.17 9.45 40.4 0 0 248.7253 358.6765
  A 21.17 9.45 40.4 0 0 270.9718 365.2007"
/>
</g>
<path fill="#000000" d="
  M 184.69 376.22
  Q 184.63 375.80 184.21 375.78
  C 72.48 370.51 -10.01 268.09 11.32 157.32
  C 31.80 50.97 139.69 -14.98 243.72 15.46
  C 321.75 38.30 375.67 110.09 375.95 191.69
  Q 376.11 237.40 375.92 293.05
  Q 375.88 303.24 377.08 309.63
  C 379.69 323.61 386.84 336.54 397.40 346.28
  Q 442.39 387.77 485.96 428.10
  C 502.07 443.01 510.57 464.51 497.28 484.56
  C 485.98 501.61 466.43 508.51 447.07 500.70
  C 437.56 496.86 430.67 490.70 423.14 482.38
  Q 384.78 439.94 346.39 397.75
  C 333.69 383.79 314.68 376.54 295.90 376.06
  Q 295.36 376.05 295.27 376.57
  Q 291.58 397.61 275.86 410.88
  C 255.08 428.41 224.32 428.27 203.80 410.58
  Q 187.96 396.92 184.69 376.22
  Z
  M 100.08 51.61
  Q 67.33 73.06 47.50 106.53
  C 5.99 176.60 20.78 265.35 82.01 318.73
  Q 122.39 353.93 178.98 359.35
  Q 181.56 359.60 184.18 359.47
  Q 184.69 359.45 184.78 358.95
  Q 188.11 339.57 203.34 325.74
  Q 217.05 313.91 235.97 312.25
  Q 236.49 312.20 236.86 311.83
  L 359.23 189.52
  Q 359.81 188.95 359.79 188.13
  Q 358.92 153.54 344.68 122.29
  C 322.35 73.29 276.44 36.66 223.22 26.96
  Q 168.88 17.05 118.99 40.70
  Q 109.40 45.25 100.08 51.61
  Z
  M 267.27 304.08
  L 257.12 314.24
  Q 256.88 314.48 257.19 314.60
  Q 288.77 326.19 295.35 359.41
  Q 295.49 360.06 296.15 360.08
  C 316.89 360.62 335.76 367.27 351.41 380.38
  Q 351.89 380.78 352.34 380.34
  L 380.36 352.33
  Q 380.66 352.02 380.38 351.70
  Q 374.59 344.84 370.50 337.51
  Q 363.65 325.21 361.22 311.92
  Q 359.89 304.68 359.93 293.78
  Q 360.08 252.04 359.97 211.83
  A 0.19 0.19 0.0 0 0 359.64 211.70
  L 267.27 304.08
  Z
  M 279.96 367.99
  A 39.96 39.96 0.0 0 0 240.00 328.03
  A 39.96 39.96 0.0 0 0 200.04 367.99
  A 39.96 39.96 0.0 0 0 240.00 407.95
  A 39.96 39.96 0.0 0 0 279.96 367.99
  Z
  M 434.25 470.80
  Q 438.52 475.54 442.43 479.11
  C 455.61 491.18 474.12 491.03 484.32 475.19
  C 492.33 462.75 485.16 449.14 475.73 440.42
  Q 434.25 402.04 392.43 363.42
  A 0.34 0.34 0.0 0 0 391.96 363.43
  L 363.36 392.04
  A 0.40 0.40 0.0 0 0 363.35 392.59
  Q 399.01 431.71 434.25 470.80
  Z"
/>
<path fill="#c64635" d="
  M 203.34 325.74
  Q 164.35 318.95 132.86 297.39
  C 85.80 265.17 57.25 212.66 56.09 155.41
  Q 55.28 115.50 75.36 82.35
  Q 85.08 66.30 100.08 51.61
  Q 109.40 45.25 118.99 40.70
  Q 168.88 17.05 223.22 26.96
  C 276.44 36.66 322.35 73.29 344.68 122.29
  Q 358.92 153.54 359.79 188.13
  Q 359.81 188.95 359.23 189.52
  L 236.86 311.83
  Q 236.49 312.20 235.97 312.25
  Q 217.05 313.91 203.34 325.74
  Z
  M 192.30 64.02
  C 234.54 64.29 272.69 86.02 294.58 121.87
  Q 311.52 149.61 312.01 183.48
  A 0.54 0.53 89.4 0 0 312.54 184.01
  L 327.48 184.01
  A 0.50 0.50 0.0 0 0 327.98 183.50
  C 327.17 108.44 267.76 48.90 192.54 48.00
  Q 192.00 47.99 192.00 48.53
  L 192.00 63.71
  A 0.31 0.30 -90.0 0 0 192.30 64.02
  Z"
/>
<path fill="#000000" d="
  M 294.58 121.87
  C 272.69 86.02 234.54 64.29 192.30 64.02
  A 0.31 0.30 -90.0 0 1 192.00 63.71
  L 192.00 48.53
  Q 192.00 47.99 192.54 48.00
  C 267.76 48.90 327.17 108.44 327.98 183.50
  A 0.50 0.50 0.0 0 1 327.48 184.01
  L 312.54 184.01
  A 0.54 0.53 89.4 0 1 312.01 183.48
  Q 311.52 149.61 294.58 121.87
  Z"
/>
<path fill="#953528" d="
  M 100.08 51.61
  Q 85.08 66.30 75.36 82.35
  Q 55.28 115.50 56.09 155.41
  C 57.25 212.66 85.80 265.17 132.86 297.39
  Q 164.35 318.95 203.34 325.74
  Q 188.11 339.57 184.78 358.95
  Q 184.69 359.45 184.18 359.47
  Q 181.56 359.60 178.98 359.35
  Q 122.39 353.93 82.01 318.73
  C 20.78 265.35 5.99 176.60 47.50 106.53
  Q 67.33 73.06 100.08 51.61
  Z"
/>
<path fill="#d9d5ca" d="
  M 370.50 337.51
  Q 362.17 347.36 359.55 349.60
  Q 345.11 361.93 326.95 355.60
  Q 313.61 350.95 304.87 339.99
  C 301.57 335.84 298.05 328.84 294.72 324.78
  Q 283.78 311.44 267.27 304.08
  L 359.64 211.70
  A 0.19 0.19 0.0 0 1 359.97 211.83
  Q 360.08 252.04 359.93 293.78
  Q 359.89 304.68 361.22 311.92
  Q 363.65 325.21 370.50 337.51
  Z"
/>
<path fill="#b6b1a5" d="
  M 267.27 304.08
  Q 283.78 311.44 294.72 324.78
  C 298.05 328.84 301.57 335.84 304.87 339.99
  Q 313.61 350.95 326.95 355.60
  Q 345.11 361.93 359.55 349.60
  Q 362.17 347.36 370.50 337.51
  Q 374.59 344.84 380.38 351.70
  Q 380.66 352.02 380.36 352.33
  L 352.34 380.34
  Q 351.89 380.78 351.41 380.38
  C 335.76 367.27 316.89 360.62 296.15 360.08
  Q 295.49 360.06 295.35 359.41
  Q 288.77 326.19 257.19 314.60
  Q 256.88 314.48 257.12 314.24
  L 267.27 304.08
  Z"
/>
<path fill="#ffd55d" d="
  M 279.96 367.99
  A 39.96 39.96 0.0 0 1 240.00 407.95
  A 39.96 39.96 0.0 0 1 200.04 367.99
  A 39.96 39.96 0.0 0 1 240.00 328.03
  A 39.96 39.96 0.0 0 1 279.96 367.99
  Z
  M 270.9718 365.2007
  A 21.17 9.45 40.4 0 0 260.9747 344.2835
  A 21.17 9.45 40.4 0 0 238.7282 337.7593
  A 21.17 9.45 40.4 0 0 248.7253 358.6765
  A 21.17 9.45 40.4 0 0 270.9718 365.2007
  Z"
/>
<ellipse fill="#ffffff" cx="0.00" cy="0.00" transform="translate(254.85,351.48) rotate(40.4)" rx="21.17" ry="9.45"/>
<path fill="#393a3a" d="
  M 434.25 470.80
  Q 399.01 431.71 363.35 392.59
  A 0.40 0.40 0.0 0 1 363.36 392.04
  L 391.96 363.43
  A 0.34 0.34 0.0 0 1 392.43 363.42
  Q 434.25 402.04 475.73 440.42
  C 485.16 449.14 492.33 462.75 484.32 475.19
  C 474.12 491.03 455.61 491.18 442.43 479.11
  Q 438.52 475.54 434.25 470.80
  Z"
/>
</svg>
